X: 24895
T: Magpie's Tale, The
R: reel
M: 4/4
K: Edorian
|:eB3 BAGB|A3B AGFE|eB3 Bcde|fffg fegf|
eB3 BAGB|A3B AGFD|EFGA Bgfd|BAFD E3d:|
|:eBBB eBgB|fBBB fBaB|gBBB gBaB|bagf g/f/edf|
eBBB eBgB|fBBB fBaB|bagf gfed|BAFD E3d:|

